svgs/sharp-solid/soap.svg

<svg xmlns="http://www.w3.org/2000/svg" viewBox="0 0 512 512"><!--! Font Awesome Pro 6.6.0 by @fontawesome - https://fontawesome.com License - https://fontawesome.com/license (Commercial License) Copyright 2024 Fonticons, Inc. --><path d="M208 96a48 48 0 1 0 0-96 48 48 0 1 0 0 96zM320 256a64 64 0 1 0 0-128 64 64 0 1 0 0 128zM416 32a32 32 0 1 0 -64 0 32 32 0 1 0 64 0zm0 160c0 24.6-9.2 47-24.4 64l24.4 0 32 0 0 32 0 128 0 32-32 0L96 448l-32 0 0-32 0-128 0-32 32 0 152.4 0c-15.2-17-24.4-39.4-24.4-64L0 192 0 512l512 0 0-320-96 0zM96 416l320 0 0-128-96 0L96 288l0 128z"/></svg>

<svg xmlns="http://www.w3.org/2000/svg" viewBox="0 0 512 512"><!--! Font Awesome Pro 6.4.0 by @fontawesome - https://fontawesome.com License - https://fontawesome.com/license (Commercial License) Copyright 2023 Fonticons, Inc. --><path d="M208 96a48 48 0 1 0 0-96 48 48 0 1 0 0 96zM320 256a64 64 0 1 0 0-128 64 64 0 1 0 0 128zM416 32a32 32 0 1 0 -64 0 32 32 0 1 0 64 0zm0 160c0 24.6-9.2 47-24.4 64H416h32v32V416v32H416 96 64V416 288 256H96 248.4c-15.2-17-24.4-39.4-24.4-64H0V512H512V192H416zM96 416H416V288H320 96V416z"/></svg>
